X:310
T: Die Erscheinung in der Brautnacht (55a), S. 176
N: T0199
O: Luxemburg
S: Singendes Volk, Esch-Alzette 1937 posth.]
N: Strassen, fff Witry, 6.12.1932
R: Liebeslieder]
M: 4/4
L: 1/16
K: G
D2G2 | G6G2G2G2B2G2 | G2F2F4z4
D2F2 | A6B2c2A2F2D2 | B4G4z4
G2Ge | e6d2c2B2A2G2 | F2A2c4z4
A2c2 | B2d2G2B2A2e2d2F2 | A4G4z4
G2Ge | e6d2c2B2A2G2 | F2A2c4z4
A2c2 | B2d2G2B2A2e2d2F2 | A4G4z4

